ocean-server/static/img/images/Rocket_menu.svg

<?xml version="1.0" encoding="utf-8"?>
<!-- Generator: Adobe Illustrator 19.1.1, SVG Export Plug-In . SVG Version: 6.00 Build 0)  -->
<svg version="1.1" id="Layer_1" xmlns="http://www.w3.org/2000/svg" xmlns:xlink="http://www.w3.org/1999/xlink" x="0px" y="0px"
	 viewBox="0 0 512 512" style="enable-background:new 0 0 512 512;" xml:space="preserve">
<style type="text/css">
	.st0{fill:#F15B24;}
	.st1{fill:#43413E;}
</style>
<g id="меню">
	<rect x="115.3" y="374.1" class="st0" width="276.3" height="62.7"/>
	<g>
		<path class="st0" d="M262.1,279.6h-24.2v35.9h-23.3v-108h52.2c34,0,42.1,14.6,42.1,35.3c0,14.9-4.8,28.6-22.7,34.3l21.4,38.5
			h-25.5L262.1,279.6z M266,259c13,0,18.8-3.2,18.8-15.5c0-12.5-5.5-15.7-19.1-15.7h-27.8V259H266z"/>
	</g>
	<path class="st1" d="M477,255.4c-18.6,0-33.8,15.2-33.8,33.8c0,5.4-4.4,9.7-9.7,9.7h-22.6l0.3-88.7c0-13.3-8.9-25-21.7-28.5
		c-39.2-10.6-57.3-89.3-61.1-159.4C327.7,9.8,317.4,0,304.8,0h-11.5c-6.5,0-12.5,2.6-17,7.2c-4.5,4.7-6.8,10.8-6.6,17.2
		c1.1,32.1-2.9,57.7-10.4,65.3c-1.3,1.4-6,1.4-7.3,0c-7.6-7.8-11.6-34.2-10.3-67.2c0.2-5.9-1.9-11.6-6-15.9C231.7,2.4,226,0,220.1,0
		h-15.4c-11.5,0-21,9-21.6,20.6c-3.4,67.6-21.5,150.4-61.2,161.2c-12.8,3.5-21.7,15.2-21.7,28.5l0.3,88.7h-22
		c-5.4,0-9.7-4.4-9.7-9.7c0-18.6-15.2-33.8-33.8-33.8H0v24.1h35c5.4,0,9.7,4.4,9.7,9.7c0,18.6,15.2,33.8,33.8,33.8h22.1l0.4,106.5
		c0.1,16.2,13.3,29.4,29.5,29.4H381c16.2,0,29.4-13.2,29.5-29.4l0.4-106.5h22.7c18.6,0,33.8-15.2,33.8-33.8c0-5.4,4.4-9.7,9.7-9.7
		h35v-24.1H477z M386.4,429.4c0,3-2.4,5.4-5.4,5.4H255.7H130.4c-3,0-5.4-2.4-5.4-5.4l-0.8-219.2c0-2.4,1.6-4.6,3.9-5.2
		C191,188,204.3,74.6,207,24.1h10.6c-1,29.2,1.3,66.2,17.1,82.5c5.7,5.9,12.9,8.9,20.8,8.9v0c0.1,0,0.1,0,0.2,0c0.1,0,0.1,0,0.2,0v0
		c7.9,0,15-3,20.7-8.8c16-16.3,18.2-53.8,17.2-82.5h10.6c2.7,49,15.8,163.8,78.9,180.9c2.3,0.6,3.9,2.8,3.9,5.2L386.4,429.4z"/>
</g>
</svg>

<?xml version="1.0" encoding="UTF-8" standalone="no"?>
<svg width="513px" height="512px" viewBox="0 0 513 512" version="1.1" xmlns="http://www.w3.org/2000/svg" xmlns:xlink="http://www.w3.org/1999/xlink" xmlns:sketch="http://www.bohemiancoding.com/sketch/ns">
    <!-- Generator: Sketch 3.4.1 (15681) - http://www.bohemiancoding.com/sketch -->
    <title>Rocket_menu</title>
    <desc>Created with Sketch.</desc>
    <defs></defs>
    <g id="Page-1" stroke="none" stroke-width="1" fill="none" fill-rule="evenodd" sketch:type="MSPage">
        <g id="Rocket_menu" sketch:type="MSLayerGroup" transform="translate(0.000000, 53.000000)">
            <g id="меню" sketch:type="MSShapeGroup">
                <rect id="Rectangle-path" fill="#F15B24" x="115.3" y="374.1" width="276.3" height="62.7"></rect>
                <path d="M262.1,279.6 L237.9,279.6 L237.9,315.5 L214.6,315.5 L214.6,207.5 L266.8,207.5 C300.8,207.5 308.9,222.1 308.9,242.8 C308.9,257.7 304.1,271.4 286.2,277.1 L307.6,315.6 L282.1,315.6 L262.1,279.6 L262.1,279.6 Z M266,259 C279,259 284.8,255.8 284.8,243.5 C284.8,231 279.3,227.8 265.7,227.8 L237.9,227.8 L237.9,259 L266,259 L266,259 Z" id="Shape" fill="#F15B24"></path>
                <path d="M477,255.4 C458.4,255.4 443.2,270.6 443.2,289.2 C443.2,294.6 438.8,298.9 433.5,298.9 L410.9,298.9 L411.2,210.2 C411.2,196.9 402.3,185.2 389.5,181.7 C350.3,171.1 332.2,92.4 328.4,22.3 C327.7,9.8 317.4,0 304.8,0 L293.3,0 C286.8,0 280.8,2.6 276.3,7.2 C271.8,11.9 269.5,18 269.7,24.4 C270.8,56.5 266.8,82.1 259.3,89.7 C258,91.1 253.3,91.1 252,89.7 C244.4,81.9 240.4,55.5 241.7,22.5 C241.9,16.6 239.8,10.9 235.7,6.6 C231.7,2.4 226,0 220.1,0 L204.7,0 C193.2,0 183.7,9 183.1,20.6 C179.7,88.2 161.6,171 121.9,181.8 C109.1,185.3 100.2,197 100.2,210.3 L100.5,299 L78.5,299 C73.1,299 68.8,294.6 68.8,289.3 C68.8,270.7 53.6,255.5 35,255.5 L0,255.5 L0,279.6 L35,279.6 C40.4,279.6 44.7,284 44.7,289.3 C44.7,307.9 59.9,323.1 78.5,323.1 L100.6,323.1 L101,429.6 C101.1,445.8 114.3,459 130.5,459 L381,459 C397.2,459 410.4,445.8 410.5,429.6 L410.9,323.1 L433.6,323.1 C452.2,323.1 467.4,307.9 467.4,289.3 C467.4,283.9 471.8,279.6 477.1,279.6 L512.1,279.6 L512.1,255.5 L477,255.5 L477,255.4 Z M386.4,429.4 C386.4,432.4 384,434.8 381,434.8 L255.7,434.8 L130.4,434.8 C127.4,434.8 125,432.4 125,429.4 L124.2,210.2 C124.2,207.8 125.8,205.6 128.1,205 C191,188 204.3,74.6 207,24.1 L217.6,24.1 C216.6,53.3 218.9,90.3 234.7,106.6 C240.4,112.5 247.6,115.5 255.5,115.5 L255.5,115.5 L255.7,115.5 L255.9,115.5 L255.9,115.5 C263.8,115.5 270.9,112.5 276.6,106.7 C292.6,90.4 294.8,52.9 293.8,24.2 L304.4,24.2 C307.1,73.2 320.2,188 383.3,205.1 C385.6,205.7 387.2,207.9 387.2,210.3 L386.4,429.4 L386.4,429.4 Z" id="Shape" fill="#43413E"></path>
            </g>
        </g>
    </g>
</svg>
